X: 705
T: THE PIPE ON THE HOB
M:6/8
L:1/8
B:O'NEILL'S 705
N:"collected by Carey"
Z:Transcribed by A. LEE WORMAN
K:Am
B|  c3  ~edc|edc BAG|ABA {a}g z e|eaa ged|
c3 ~edc|edc deg|age dBe|ABA A2:|
||f|g3 {a}gea|age edB|ABA {a}g z e|aba ge^f|
g3 {a}gea|age e^fg|age dBe|ABA A2:|
||B|c2 c d2 d|ecA AGE|c2 c d2 d|ecA A2 B|
c2 c d2 d|e2 e ^gab|a=ge dBe|ABA A2:|


